X: 4949
T: Breeches Buttoned On, The
R: polka
M: 2/4
K: Edorian
|:E>F GF|Ee dB|GF/G/ AF|EF D2|
E>F GF|Ee dB|GF/G/ AD|1 FE ED:|2 FE E2||
|:Be ef|gf ed|Bc d>e|dB c/B/A|
Be ef|gf ed|G2 AD|1 FE E2:|2 FE ED||

